dealnox/img/frame-right-up.svg

<svg width="190" height="175" viewBox="0 0 190 175" fill="none" xmlns="http://www.w3.org/2000/svg">
<g clip-path="url(#clip0_881_195)">
<path style="mix-blend-mode:lighten" opacity="0.8" d="M50.5563 349H-813.556C-850.525 348.942 -885.966 330.538 -912.106 297.826C-938.247 265.113 -952.953 220.762 -953 174.5C-952.963 128.234 -938.259 83.8765 -912.117 51.1615C-885.974 18.4465 -850.528 0.046816 -813.556 0H50.5563C87.5276 0.046816 122.974 18.4465 149.117 51.1615C175.259 83.8765 189.963 128.234 190 174.5C189.963 220.766 175.259 265.123 149.117 297.838C122.974 330.553 87.5276 348.953 50.5563 349ZM-813.556 19.0548C-846.483 19.1133 -878.047 35.5108 -901.327 64.651C-924.606 93.7912 -937.7 133.295 -937.738 174.5C-937.7 215.701 -924.605 255.2 -901.325 284.333C-878.044 313.467 -846.48 329.854 -813.556 329.901H50.5563C83.4798 329.854 115.044 313.467 138.325 284.333C161.605 255.2 174.7 215.701 174.738 174.5C174.71 133.292 161.619 93.7808 138.337 64.638C115.056 35.4953 83.486 19.1017 50.5563 19.0548H-813.556Z" fill="url(#paint0_linear_881_195)"/>
</g>
<defs>
<linearGradient id="paint0_linear_881_195" x1="-381.482" y1="0" x2="-381.482" y2="349" gradientUnits="userSpaceOnUse">
<stop stop-color="#09FEA6"/>
<stop offset="1" stop-color="#D21CFF"/>
</linearGradient>
<clipPath id="clip0_881_195">
<rect width="190" height="175" fill="white"/>
</clipPath>
</defs>
</svg>

<svg width="190" height="175" fill="none" xmlns="http://www.w3.org/2000/svg"><g clip-path="url(#clip0_881_195)"><path style="mix-blend-mode:lighten" opacity=".8" d="M50.556 349h-864.112c-36.969-.058-72.41-18.462-98.55-51.174-26.141-32.713-40.847-77.064-40.894-123.326.037-46.266 14.741-90.624 40.883-123.339C-885.974 18.446-850.528.047-813.556 0H50.556c36.972.047 72.418 18.447 98.561 51.161C175.259 83.876 189.963 128.234 190 174.5c-.037 46.266-14.741 90.623-40.883 123.338-26.143 32.715-61.59 51.115-98.56 51.162zM-813.556 19.055c-32.927.058-64.491 16.456-87.771 45.596-23.279 29.14-36.373 68.644-36.411 109.849.038 41.201 13.133 80.7 36.413 109.833 23.281 29.134 54.845 45.521 87.769 45.568H50.556c32.924-.047 64.488-16.434 87.769-45.568 23.28-29.133 36.375-68.632 36.413-109.833-.028-41.208-13.119-80.72-36.401-109.862-23.281-29.143-54.851-45.536-87.78-45.583h-864.113z" fill="url(#paint0_linear_881_195)"/></g><defs><linearGradient id="paint0_linear_881_195" x1="-381.482" y1="0" x2="-381.482" y2="349" gradientUnits="userSpaceOnUse"><stop stop-color="#09FEA6"/><stop offset="1" stop-color="#D21CFF"/></linearGradient><clipPath id="clip0_881_195"><path fill="#fff" d="M0 0h190v175H0z"/></clipPath></defs></svg>
